app/img/svg/timer.svg

<svg xmlns="http://www.w3.org/2000/svg" width="596" height="691"><defs><clipPath id="cp1"><path d="M0 1h596v690H0z"/></clipPath></defs><style></style><g id="Page 1" clip-path="url(#cp1)"><path id="Path 1" fill-rule="evenodd" d="M596 393c0 164.58-133.42 298-298 298S0 557.58 0 393C0 241.29 113.36 116.06 260 97.4V78.23h-15.32c-21.82 0-39.68-17.42-39.68-38.71S222.86.81 244.68.81h106.64C373.15.81 391 18.23 391 39.52s-17.86 38.71-39.68 38.71H336V97.4c56.22 7.16 107.54 29.99 149.46 63.96l10.77-10.77c15.43-15.43 37.87-18.25 49.87-6.25 11.99 11.99 9.18 34.43-6.25 49.87l-10.71 10.71C570.93 256.21 596 321.67 596 393zm-77.67 0c0-121.69-98.64-220.33-220.33-220.33-121.69 0-220.33 98.64-220.33 220.33 0 121.69 98.64 220.33 220.33 220.33 121.69 0 220.33-98.64 220.33-220.33z"/></g></svg>

<svg xmlns="http://www.w3.org/2000/svg" viewBox="0 0 596 691" width="596" height="691">
	<defs>
		<clipPath clipPathUnits="userSpaceOnUse" id="cp1">
			<path d="M0 1L596 1L596 691L0 691Z" />
		</clipPath>
	</defs>
	<style>
		tspan { white-space:pre }
		.shp0 { fill: #000000 } 
	</style>
	<g id="Page 1" clip-path="url(#cp1)">
		<path id="Path 1" fill-rule="evenodd" class="shp0" d="M596 393C596 557.58 462.58 691 298 691C133.42 691 0 557.58 0 393C0 241.29 113.36 116.06 260 97.4L260 78.23L244.68 78.23C222.86 78.23 205 60.81 205 39.52C205 18.23 222.86 0.81 244.68 0.81L351.32 0.81C373.15 0.81 391 18.23 391 39.52C391 60.81 373.14 78.23 351.32 78.23L336 78.23L336 97.4C392.22 104.56 443.54 127.39 485.46 161.36L496.23 150.59C511.66 135.16 534.1 132.34 546.1 144.34C558.09 156.33 555.28 178.77 539.85 194.21L529.14 204.92C570.93 256.21 596 321.67 596 393ZM518.33 393C518.33 271.31 419.69 172.67 298 172.67C176.31 172.67 77.67 271.31 77.67 393C77.67 514.69 176.31 613.33 298 613.33C419.69 613.33 518.33 514.69 518.33 393Z" />
	</g>
</svg>
